packages/tokens/icons/legal/size32Px.svg

<svg viewBox="0 0 32 32" fill="none" xmlns="http://www.w3.org/2000/svg" width="1em" height="1em"><path d="M8.74409 25.7666C8.83065 25.6026 9.00085 25.5 9.18629 25.5L23.8137 25.5C23.9991 25.5 24.1694 25.6026 24.2559 25.7666L24.7837 26.7666C24.9594 27.0996 24.718 27.5 24.3415 27.5L8.65851 27.5C8.282 27.5 8.04058 27.0996 8.21632 26.7666L8.74409 25.7666Z" stroke="currentColor"/><path d="M15 8.5L15 25M17 8.5L17 25" stroke="currentColor"/><path d="M14.5 10.5L9.62132 10.5C9.2235 10.5 8.84196 10.658 8.56066 10.9393V10.9393C7.97487 11.5251 7.02513 11.5251 6.43934 10.9393V10.9393C6.15804 10.658 5.7765 10.5 5.37868 10.5H4.5" stroke="currentColor" stroke-linecap="round"/><path d="M17 10.5L22.3787 10.5C22.7765 10.5 23.158 10.658 23.4393 10.9393V10.9393C24.0251 11.5251 24.9749 11.5251 25.5607 10.9393V10.9393C25.842 10.658 26.2235 10.5 26.6213 10.5H27.5" stroke="currentColor" stroke-linecap="round"/><path d="M13.5 8.5H18.5" stroke="currentColor" stroke-linecap="round"/><path d="M18 6.5C18 7.60457 17.1046 8.5 16 8.5C14.8954 8.5 14 7.60457 14 6.5C14 5.39543 14.8954 4.5 16 4.5C17.1046 4.5 18 5.39543 18 6.5Z" stroke="currentColor"/><path d="M29.4035 19.3842C28.9536 21.4157 26.9566 23 24.5 23C22.0434 23 20.0464 21.4157 19.5965 19.3842C19.5756 19.2897 19.601 19.2066 19.6676 19.1353C19.7394 19.0584 19.8588 19 20 19H29C29.1412 19 29.2606 19.0584 29.3324 19.1353C29.399 19.2066 29.4244 19.2897 29.4035 19.3842Z" stroke="currentColor"/><path d="M28.5 19L24.5 12L20.5 19" stroke="currentColor" stroke-linejoin="round"/><path d="M12.4035 19.3842C11.9536 21.4157 9.95663 23 7.5 23C5.04337 23 3.04642 21.4157 2.59648 19.3842C2.57556 19.2897 2.60097 19.2066 2.6676 19.1353C2.73944 19.0584 2.85877 19 3 19H12C12.1412 19 12.2606 19.0584 12.3324 19.1353C12.399 19.2066 12.4244 19.2897 12.4035 19.3842Z" stroke="currentColor"/><path d="M11.5 19L7.5 12L3.5 19" stroke="currentColor" stroke-linejoin="round"/></svg>

<svg xmlns="http://www.w3.org/2000/svg" fill="none" viewBox="0 0 32 32" width="1em" height="1em"><path stroke="currentColor" d="M8.744 25.767a.5.5 0 0 1 .442-.267h14.628a.5.5 0 0 1 .442.267l.528 1a.5.5 0 0 1-.442.733H8.659a.5.5 0 0 1-.443-.733l.528-1ZM15 8.5V25m2-16.5V25"/><path stroke="currentColor" stroke-linecap="round" d="M14.5 10.5H9.621a1.5 1.5 0 0 0-1.06.44v0a1.5 1.5 0 0 1-2.122 0v0a1.5 1.5 0 0 0-1.06-.44H4.5m12.5 0h5.379a1.5 1.5 0 0 1 1.06.44v0a1.5 1.5 0 0 0 2.122 0v0a1.5 1.5 0 0 1 1.06-.44h.879m-14-2h5"/><path stroke="currentColor" d="M18 6.5a2 2 0 1 1-4 0 2 2 0 0 1 4 0Zm11.404 12.884C28.954 21.416 26.957 23 24.5 23s-4.454-1.584-4.904-3.616a.264.264 0 0 1 .072-.249A.457.457 0 0 1 20 19h9c.141 0 .26.058.332.135a.264.264 0 0 1 .072.25Z"/><path stroke="currentColor" stroke-linejoin="round" d="m28.5 19-4-7-4 7"/><path stroke="currentColor" d="M12.403 19.384C11.954 21.416 9.957 23 7.5 23c-2.457 0-4.454-1.584-4.904-3.616a.264.264 0 0 1 .072-.249A.457.457 0 0 1 3 19h9c.141 0 .26.058.332.135a.264.264 0 0 1 .071.25Z"/><path stroke="currentColor" stroke-linejoin="round" d="m11.5 19-4-7-4 7"/></svg>
